skins/bumeran/img/navent-logo.svg

<?xml version="1.0" encoding="UTF-8" standalone="no"?>
<svg width="56px" height="26px" viewBox="0 0 56 26" version="1.1" xmlns="http://www.w3.org/2000/svg" xmlns:xlink="http://www.w3.org/1999/xlink" xmlns:sketch="http://www.bohemiancoding.com/sketch/ns">
    <!-- Generator: Sketch 3.1.1 (8761) - http://www.bohemiancoding.com/sketch -->
    <title>Group 3</title>
    <desc>Created with Sketch.</desc>
    <defs>
        <path id="path-1" d="M0.00924369748,-0.04 L55.0280392,-0.04 L55.0280392,25 L0.00924369748,25 L0.00924369748,-0.04 Z"></path>
    </defs>
    <g id="Home" stroke="none" stroke-width="1" fill="none" fill-rule="evenodd" sketch:type="MSPage">
        <g id="Logo-Navent" sketch:type="MSLayerGroup" transform="translate(0.000000, 1.000000)">
            <g id="Group-3">
                <g id="Group">
                    <g>
                        <mask id="mask-2" sketch:name="Clip 2" fill="white">
                            <use xlink:href="#path-1"></use>
                        </mask>
                        <g id="Clip-2"></g>
                        <path d="M53.3695658,16.8210606 C53.3695658,18.4143939 52.0568067,19.7043939 50.4379272,19.7043939 L4.58934174,19.7043939 C2.97261905,19.7043939 1.65816527,18.4143939 1.65816527,16.8210606 L1.65816527,4.47545455 C1.65816527,2.88439394 2.97261905,1.59348485 4.58934174,1.59348485 L50.4379272,1.59348485 C52.0568067,1.59348485 53.3695658,2.88439394 53.3695658,4.47545455 L53.3695658,16.8210606 L53.3695658,16.8210606 Z M50.4379272,-0.04 L4.58934174,-0.04 C2.05826331,-0.04 0,1.98560606 0,4.47545455 L0,16.8210606 C0,17.6431818 0.224929972,18.4110606 0.615630252,19.0775758 C0.630882353,19.1172727 0.646442577,19.1539394 0.669089636,19.189697 L3.85770308,24.6212121 C3.99635854,24.8559091 4.25194678,25 4.52694678,25 C4.80410364,25 5.05907563,24.8559091 5.19696078,24.6212121 L7.12642857,21.3360606 L50.4379272,21.3360606 C52.9697759,21.3360606 55.0280392,19.3113636 55.0280392,16.8210606 L55.0280392,4.47545455 C55.0280392,1.98560606 52.9697759,-0.04 50.4379272,-0.04 L50.4379272,-0.04 Z" id="Fill-1" fill="#1A1918" sketch:type="MSShapeGroup" mask="url(#mask-2)"></path>
                        <path d="M11.3543417,7.73257576 C10.5495238,7.24121212 9.66644258,6.9930303 8.70956583,6.9930303 C7.77287115,7.03590909 6.91936975,7.30257576 6.14443978,7.79560606 C5.37382353,8.28772727 4.98666667,9.26272727 4.98666667,10.7175758 L4.98666667,15.7278788 L7.27371148,15.7278788 L7.27371148,10.2706061 C7.27371148,9.75409091 7.42315126,9.38090909 7.73112045,9.14439394 C8.03415966,8.90939394 8.38326331,8.79287879 8.7755042,8.79287879 C9.16743697,8.79287879 9.51962185,8.90939394 9.8369888,9.14439394 C10.1528151,9.38090909 10.3096499,9.75409091 10.3096499,10.2706061 L10.3096499,14.6383333 C10.3096499,14.9581818 10.4133333,15.2213636 10.6203922,15.4251515 C10.8246779,15.6281818 11.0941317,15.7278788 11.4201261,15.7278788 L12.5626471,15.7278788 L12.5626471,10.7175758 C12.5626471,9.22106061 12.1613165,8.22515152 11.3543417,7.73257576" id="Fill-4" fill="#1A1918" sketch:type="MSShapeGroup" mask="url(#mask-2)"></path>
                        <path d="M18.5869188,12.2289394 C18.5869188,12.8281818 18.4123669,13.2998485 18.0641877,13.6428788 C17.7172409,13.9848485 17.2359524,14.155 16.6267927,14.155 C16.2568908,14.155 15.9743417,14.0698485 15.777605,13.8987879 C15.5817927,13.7075758 15.4833473,13.4501515 15.4833473,13.1284848 C15.4833473,12.8915152 15.5602241,12.6571212 15.7121289,12.4210606 C15.8865266,12.2489394 16.1687675,12.110303 16.562395,12.0040909 L17.3128291,11.8442424 C17.8568207,11.7151515 18.2818768,11.5765152 18.5869188,11.4254545 L18.5869188,12.2289394 L18.5869188,12.2289394 Z M19.762563,7.60393939 C19.1521709,7.19727273 18.2381232,6.9930303 17.0190336,6.9930303 C15.9308964,6.9930303 15.0918768,7.24121212 14.5042857,7.73257576 C13.9803221,8.16045455 13.6762045,8.70575758 13.5894678,9.37090909 L15.777605,9.37090909 C15.8865266,9.13575758 16.0612325,8.97348485 16.300028,8.88757576 C16.5385154,8.80242424 16.8113585,8.76075758 17.1179412,8.76075758 C17.3995658,8.76075758 17.7095378,8.8080303 18.0487815,8.90409091 C18.3843277,9.00060606 18.5537955,9.20878788 18.5537955,9.53075758 C18.5537955,9.95939394 18.0755882,10.2375758 17.1179412,10.365303 C16.9212045,10.3877273 16.744958,10.4140909 16.5945938,10.4456061 C16.4419188,10.4786364 16.3109664,10.4937879 16.2017367,10.4937879 C15.3747339,10.6227273 14.6947059,10.8783333 14.1614986,11.2633333 C13.6276751,11.6498485 13.3616106,12.2925758 13.3616106,13.1939394 C13.3616106,14.155 13.6552521,14.8460606 14.2428431,15.2630303 C14.832437,15.6815152 15.5172409,15.8901515 16.300028,15.8901515 C16.6933473,15.8901515 17.1453641,15.8619697 17.6568487,15.8107576 C18.1669468,15.7569697 18.6531653,15.6116667 19.1096499,15.3757576 C19.5447199,15.1615152 19.9201681,14.8131818 20.2355322,14.334697 C20.5510504,13.8512121 20.7094258,13.1818182 20.7094258,12.3234848 L20.7094258,9.40212121 C20.7094258,8.63212121 20.3917507,8.03181818 19.762563,7.60393939 L19.762563,7.60393939 Z" id="Fill-5" fill="#1A1918" sketch:type="MSShapeGroup" mask="url(#mask-2)"></path>
                        <path d="M27.6816387,7.1869697 C27.1584454,7.1869697 26.8091877,7.44212121 26.6367927,7.95621212 L25.1018768,13.1939394 L23.3703782,7.1869697 L20.9543838,7.1869697 L23.9918627,15.7278788 L26.3097199,15.7278788 L29.3798599,7.1869697 L27.6816387,7.1869697" id="Fill-6" fill="#1A1918" sketch:type="MSShapeGroup" mask="url(#mask-2)"></path>
                        <path d="M31.4943557,10.589697 C31.5170028,10.0345455 31.6787675,9.60636364 31.9822689,9.30651515 C32.2897759,9.00742424 32.6790896,8.85681818 33.1592997,8.85681818 C33.6809524,8.85681818 34.085056,9.00742424 34.3691457,9.30651515 C34.6270448,9.58378788 34.7804902,10.0133333 34.8240896,10.589697 L31.4943557,10.589697 L31.4943557,10.589697 Z M33.0933613,6.9930303 C31.8536275,6.9930303 30.8830392,7.38909091 30.1865266,8.18075758 C29.512507,8.95333333 29.1752661,10.0230303 29.1752661,11.3936364 C29.1752661,12.8281818 29.5234454,13.9312121 30.2211905,14.7025758 C30.9166246,15.4937879 31.8845938,15.8901515 33.1272549,15.8901515 C34.1482213,15.8901515 34.9994118,15.6442424 35.6734314,15.1521212 C36.3482213,14.6815152 36.8057843,13.995 37.0465826,13.0959091 L35.4138375,13.0959091 C35.1522409,13.0959091 34.9504202,13.1504545 34.8082213,13.2577273 C34.6677171,13.3637879 34.5854482,13.4501515 34.5643417,13.5134848 C34.4977871,13.5777273 34.4389356,13.6372727 34.3842437,13.6898485 C34.3286275,13.7433333 34.2691597,13.7822727 34.2036835,13.8025758 C33.942549,13.9507576 33.6276471,14.0278788 33.2554342,14.0278788 C32.6914146,14.0278788 32.2666667,13.8556061 31.9822689,13.5134848 C31.6787675,13.1939394 31.5170028,12.7007576 31.4943557,12.0351515 L37.142563,12.0351515 C37.1645938,11.9934848 37.1747619,11.9175758 37.1747619,11.8107576 L37.1747619,11.6839394 L37.1747619,11.4580303 C37.1747619,10.0437879 36.8279692,8.9430303 36.1314566,8.1480303 C35.4138375,7.3780303 34.4022689,6.9930303 33.0933613,6.9930303 L33.0933613,6.9930303 Z" id="Fill-7" fill="#1A1918" sketch:type="MSShapeGroup" mask="url(#mask-2)"></path>
                        <path d="M44.290098,7.73257576 C43.4820448,7.24121212 42.6017367,6.9930303 41.6447059,6.9930303 C40.7064706,7.03590909 39.8508123,7.30257576 39.0811204,7.79560606 C38.3085014,8.28772727 37.9198039,9.26272727 37.9198039,10.7175758 L37.9198039,15.7278788 L40.2063866,15.7278788 L40.2063866,10.2706061 C40.2063866,9.75409091 40.3578291,9.38090909 40.6634874,9.14439394 C40.9691457,8.90939394 41.3156303,8.79287879 41.7080252,8.79287879 C42.1007283,8.79287879 42.4536835,8.90939394 42.7701261,9.14439394 C43.0862605,9.38090909 43.2427871,9.75409091 43.2427871,10.2706061 L43.2427871,14.6383333 C43.2427871,14.9581818 43.347549,15.2213636 43.5547619,15.4251515 C43.7621289,15.6281818 44.0260364,15.7278788 44.3537255,15.7278788 L45.4967087,15.7278788 L45.4967087,10.7175758 C45.4967087,9.22106061 45.0932213,8.22515152 44.290098,7.73257576" id="Fill-8" fill="#1A1918" sketch:type="MSShapeGroup" mask="url(#mask-2)"></path>
                        <path d="M48.7035014,5.77439394 C48.7035014,5.4730303 48.5938095,5.21651515 48.3771989,5.00378788 C48.1579692,4.78787879 47.907619,4.68121212 47.6236835,4.68121212 L46.4488095,4.68121212 L46.4488095,14.1237879 C46.4488095,15.1078788 46.8683193,15.6328788 47.7061064,15.6977273 C48.5440476,15.7610606 49.3215966,15.7731818 50.0406022,15.7278788 L50.0406022,14.06 L49.355028,14.06 C48.9193417,14.06 48.7035014,13.8783333 48.7035014,13.5134848 L48.7035014,9.19242424 L48.932437,9.19242424 C49.2347059,9.19242424 49.4961485,9.09075758 49.7153782,8.88681818 C49.9329132,8.68333333 50.0406022,8.41984848 50.0406022,8.09772727 L50.0406022,7.2180303 L48.7035014,7.2180303 L48.7035014,5.77439394" id="Fill-9" fill="#1A1918" sketch:type="MSShapeGroup" mask="url(#mask-2)"></path>
                    </g>
                </g>
            </g>
        </g>
    </g>
</svg>

<svg width="56" height="26" viewBox="0 0 56 26" xmlns="http://www.w3.org/2000/svg" xmlns:xlink="http://www.w3.org/1999/xlink"><title>Group 3</title><defs><path id="a" d="M.01-.04h55.018V25H.008V-.04z"/></defs><g transform="translate(0 1)" fill="none" fill-rule="evenodd"><mask id="b" fill="#fff"><use xlink:href="#a"/></mask><path d="M53.37 16.82c0 1.594-1.313 2.884-2.932 2.884H4.588c-1.615 0-2.93-1.29-2.93-2.883V4.476c0-1.59 1.315-2.882 2.93-2.882h45.85c1.62 0 2.932 1.29 2.932 2.882V16.82zM50.438-.04H4.588C2.06-.04 0 1.986 0 4.475V16.82c0 .823.225 1.59.616 2.258.015.04.03.076.053.112l3.188 5.43c.138.236.394.38.67.38s.53-.144.67-.38l1.928-3.284h43.312c2.532 0 4.59-2.025 4.59-4.515V4.476c0-2.49-2.058-4.515-4.59-4.515z" fill="#1A1918" mask="url(#b)"/><path d="M11.354 7.733c-.804-.492-1.688-.74-2.644-.74-.937.043-1.79.31-2.566.803-.77.492-1.157 1.467-1.157 2.922v5.01h2.287V10.27c0-.516.15-.89.457-1.126.304-.235.653-.35 1.046-.35.39 0 .744.115 1.06.35.317.237.474.61.474 1.127v4.368c0 .32.103.583.31.787.205.203.474.303.8.303h1.143v-5.01c0-1.497-.402-2.493-1.21-2.985M18.587 12.23c0 .598-.175 1.07-.523 1.413-.347.342-.828.512-1.437.512-.37 0-.653-.085-.85-.256-.195-.192-.294-.45-.294-.772 0-.236.077-.47.23-.707.174-.17.456-.31.85-.416l.75-.16c.544-.13.97-.267 1.274-.42v.805zm1.176-4.626c-.61-.407-1.525-.61-2.744-.61-1.09 0-1.928.247-2.516.74-.524.426-.828.972-.915 1.637h2.188c.11-.234.283-.397.522-.482.24-.086.51-.127.818-.127.282 0 .592.048.93.144.336.097.506.305.506.627 0 .43-.478.708-1.436.835-.197.023-.373.05-.523.08-.153.034-.284.05-.393.05-.827.128-1.507.383-2.04.768-.534.387-.8 1.03-.8 1.93 0 .962.293 1.653.88 2.07.59.42 1.275.627 2.058.627.393 0 .845-.028 1.357-.08.51-.053.996-.198 1.453-.434.435-.214.81-.563 1.126-1.04.315-.485.473-1.154.473-2.013v-2.92c0-.77-.318-1.37-.947-1.8zM27.682 7.187c-.524 0-.873.255-1.045.77l-1.535 5.237-1.732-6.007h-2.416l3.038 8.54h2.318l3.07-8.54h-1.698M31.494 10.59c.023-.555.185-.984.488-1.283.308-.3.697-.45 1.177-.45.52 0 .925.15 1.21.45.257.277.41.706.454 1.283h-3.33zm1.6-3.597c-1.24 0-2.21.396-2.907 1.188-.674.773-1.012 1.843-1.012 3.214 0 1.434.348 2.537 1.046 3.31.697.79 1.665 1.186 2.907 1.186 1.02 0 1.872-.246 2.546-.738.675-.47 1.133-1.157 1.374-2.056h-1.633c-.262 0-.464.054-.606.162-.14.106-.223.192-.244.255l-.18.177c-.055.053-.115.092-.18.113-.26.148-.576.225-.95.225-.563 0-.987-.172-1.272-.515-.303-.32-.465-.812-.488-1.478h5.65c.02-.042.03-.117.03-.224v-.352c0-1.414-.346-2.515-1.043-3.31-.716-.77-1.728-1.155-3.037-1.155zM44.29 7.733c-.808-.492-1.688-.74-2.645-.74-.94.043-1.794.31-2.564.803-.77.492-1.16 1.467-1.16 2.922v5.01h2.286V10.27c0-.516.152-.89.457-1.126.306-.235.653-.35 1.045-.35.393 0 .746.115 1.062.35.316.237.473.61.473 1.127v4.368c0 .32.105.583.312.787.207.203.47.303.8.303h1.142v-5.01c0-1.497-.404-2.493-1.207-2.985M48.704 5.774c0-.3-.11-.557-.327-.77-.22-.216-.47-.323-.753-.323H46.45v9.444c0 .984.418 1.51 1.256 1.574.838.063 1.616.075 2.335.03V14.06h-.685c-.436 0-.65-.182-.65-.547v-4.32h.227c.303 0 .564-.102.783-.306.218-.204.326-.467.326-.79v-.88h-1.336V5.775" fill="#1A1918" mask="url(#b)"/></g></svg>
